src/images/crypto-icon-svg/ven.svg

<svg xmlns="http://www.w3.org/2000/svg" width="32" height="32" viewBox="0 0 32 32">
  <g fill="none" fill-rule="evenodd">
    <circle cx="16" cy="16" r="16" fill="#15BDFF"/>
    <path fill="#FFF" fill-rule="nonzero" d="M14.7383779,24.7343956 L7.03961387,9.0462207 C6.91428516,8.79549644 7.10227823,8.5 7.37979182,8.5 L10.0475031,8.5 C10.1907359,8.5 10.3250166,8.58058994 10.387681,8.70595207 L16.0095691,20.0870424 C16.510884,21.1078483 17.9611163,21.1078483 18.4624311,20.0870424 L24.0664152,8.71490651 C24.1290795,8.58954438 24.2633603,8.50895444 24.4065931,8.50895444 L24.737819,8.50895444 C24.9347641,8.50895444 25.0600928,8.71490651 24.9705723,8.88504082 L17.1912399,24.7343956 C16.689925,25.7552015 15.2396927,25.7552015 14.7383779,24.7343956 Z"/>
  </g>
</svg>

<svg xmlns="http://www.w3.org/2000/svg" width="32" height="32"><g fill="none" fill-rule="evenodd"><circle cx="16" cy="16" r="16" fill="#15BDFF"/><path fill="#FFF" fill-rule="nonzero" d="M14.738 24.734L7.04 9.046a.38.38 0 0 1 .34-.546h2.668c.143 0 .277.08.34.206l5.622 11.381c.5 1.02 1.951 1.02 2.452 0l5.604-11.372a.382.382 0 0 1 .34-.206h.332c.197 0 .322.206.233.376l-7.78 15.85c-.501 1.02-1.951 1.02-2.453 0z"/></g></svg>
